X: 5805
T: Caledonia
R: jig
M: 6/8
K: Bminor
FS|Bd/c/ B/A/ BFF|Fdc dFF|Bd/c/ B/A/ BFd|EFA B2F|
Bd/c/ B/A/ BFF|Fdc dFF|GA/G/ F/E/ FG/F/ E/D/|EFA B2 d|
|:A/B/dd d2A|d/c/d/e/ f/g/ afd|ga/g/ f/e/ fdB|AFA [1 B2 d:|2 B2"D.S."F||

